X: 2791
T: Banshee, The
R: reel
M: 4/4
K: Gmajor
|:G3D EDEG|AGAB d2 (3Bcd|efge dBGA|BAGE EDDE|
G3D EDEG|AGAB d2 (3Bcd|efge dBGA|1 BAGE EDDE:|2 BAGE ED D2||
|:eaag efge|dBBA B3d|eB B2 egfg|eBBA B2 (3Bcd|
eaag efge|dBBA B3d|e3d BAGA|1 BAGE EDD2:|2 BAGE EDDE||

